X: 3110
T: Beare Island
R: reel
M: 4/4
K: Edorian
EB^AB AGEc|dBcA Beec|d2 fd AFDF|GEFD EDBA|
GEEF GFGA|B2 A=c Bdef|g2 fg effe|1 dBAF E3 D:|2 dBAF E3 A||
Beef gefd|B2 AG FD D2|Beef gefd|Be^df e3f|
edBc d3c|BcdB AFDF|GB B2 AFDF|1 GEED E3 A:|2 GEED E3 D||

